!!!COM: Robert Franz
!!!CNT: Deutscher
!!!TXO: Deutsche 
!!!OTL: "Ich hab' in Deinem Auge"
!!!OPS: Op. 5
!!!ONM: No. 6
!!!ONB: Original key: Ab Major
!!!LYR: Fr. Ruckert
!!!ENC: Brian Bice
!!!YOR: Vocal Album, G. Schirmer, Inc., 1907
!!!ODT: 1846/
!!NB: Vocal melody and text only encoded.
**kern	**silbe
*clefG2	*
*k[b-]	*
*M6/8	*
=0	=0
4.r	.
4r	.
{8a	{Ich
=1	=1
4a	hab'
8a	in
4cc	Dei-
8b-	-nem
=2	=2
4.e	Au-
4f}	-ge}
{8f	{den
=3	=3
4g	Strahl
8a	der
8.dd	e-
16dd	-wi-
8cc	-gen
=4	=4
4b-	Lie-
16e	-be
16e	ge-
4f}	-seh'n,}
{8a	{ich
=5	=5
4a	sah
8a	auf
4cc	dei-
8b-	-nen
=6	=6
4.e	Wan-
4f}	-gen}
8r	.
=7	=7
{8f	{ein-
8f	-mal
8f	die
8a	Ro-
8d	-sen
8e	des
=8	=8
4f	Him-
8e	-mels
4e}	steh'n.}
8r	.
=9	=9
4r	.
8r	.
{8c	{Und
8c	wie
8c	der
=10	=10
4f	Strahl
8f	im
4a-	Aug'
8a-	er-
=11	=11
4g}	-lischt,}
8r	.
{8c	{und
8c	wie
8c	die
=12	=12
8.f	Ro-
16g	-sen
8a-	zer-
[4.a-	-stie-
=13	=13
4.a-]	|
4e-}	-ben,}
{8cc	{ihr
=14	=14
4b-	Ab-
8b-	-glanz,
4a-	e-
8a-	-wig
=15	=15
4g	neu
8f	er-
4e}	-frischt,}
{8cc	{ist
=16	=16
4b-	mir
8b-	im
8.a-	Her-
16a-	-zen
8a-	ge-
=17	=17
(4g	-blie-
8f)	|
4e}	-ben,}
8r	.
=18	=18
4r	.
8r	.
4r	.
{8a	{und
=19	=19
4a	nie-
8a	-mals
8cc	werd'
8cc	ich
8b-	die
=20	=20
4e	Wan-
8e	-gen
4f}	seh'n,}
{8f	{und
=21	=21
4g	nie
8a	in's
8.d	Au-
16d	-ge
8cc	Dir
=22	=22
(4b-	bli-
8en)	|
4f}	-cken,}
{8a	{so
=23	=23
4a	wer-
8a	-den
8dd	sie
8cc	mir
8b-	in
=24	=24
4a	Ro-
8cc	-sen
4b-}	steh'n,}
{16g	{und
16f	das
=25	=25
4e	Au-
16e	-ge
16e	den
4f	Strahl
8b-	mir
=26	=26
2.g	schi-
=27	=27
4f}	-cken.}
8r	.
4r	.
*-	*-
